22x22/apps/nerolinux.svg

<svg xmlns="http://www.w3.org/2000/svg" width="22" height="22" version="1">
 <circle style="opacity:0.2" cx="11" cy="11.5" r="10"/>
 <circle style="fill:#d14234" cx="11" cy="11" r="10"/>
 <path style="opacity:0.2;fill:#f4f4f7" d="M 11,1 A 10,10 0 0 0 1,11 10,10 0 0 0 1.0107422,11.291016 10,10 0 0 1 11,1.5 10,10 0 0 1 20.989258,11.208985 10,10 0 0 0 21,11 10,10 0 0 0 11,1 Z"/>
 <path style="fill:#ffc81b" d="M 9.890156,5.692383 9.703632,6.0771485 c -0.266564,0.55065 -0.238097,0.956298 0.119141,1.729492 0.240681,0.5209205 0.23604,0.927043 0.232227,1.3133365 -0.11405,0.908467 -0.613494,1.785684 -1.347926,1.8935 C 8.060673,11.108367 7.067267,10.30459 6.7822695,9.758961 6.498202,9.215112 6.3989775,9.674261 6.6299255,10.464039 6.7040045,10.71737 6.9384,11.426089 7.1504335,11.91582 7.797784,13.411002 7.674586,14.228799 6.873047,14.468945 6.4334455,14.600653 5.9689975,14.472845 5.550781,14.105664 5.386744,13.961637 5.224821,13.871297 5.191406,13.904492 c -0.033435,0.0332 -0.079218,0.445318 -0.102539,0.916016 -0.1962265,1.546348 1.0248385,2.136834 2.2228,2.804834 0.634468,0.349173 1.3252905,0.611206 2.059427,0.774072 0.429797,0.09535 0.932948,0.12404 1.823242,0.103515 1.105394,-0.02549 1.310932,-0.05567 2.035156,-0.293945 1.356441,-0.446285 2.517549,-1.226341 3.406624,-2.217096 0.378406,-0.444149 0.489779,-0.764808 0.609978,-1.231146 0.11707,-0.673706 0.162759,-1.483399 0.08398,-1.483398 -0.0435,0 -0.266395,0.190622 -0.496094,0.423828 -0.297992,0.302542 -0.483841,0.423828 -0.648437,0.423828 -0.3231,0 -0.61813,-0.228563 -0.391844,-0.728515 0.303564,-0.670691 0.265345,-1.288739 -0.129883,-2.083985 -0.177668,-0.357489 -0.396637,-0.716682 -0.486328,-0.797851 -0.159282,-0.144148 -0.162624,-0.135016 -0.163086,0.395507 -9e-4,1.042338 -0.272118,1.527685 -1.037109,1.859375 -0.626831,0.271789 -1.585301,0.291076 -2.019289,0.03613 -0.656911,-0.385899 -0.657727,-0.793578 -0.001,-2.390625 C 12.115172,10.030429 12.225922,9.750108 12.3027,9.52791 12.552556,8.843541 12.470654,8.165594 12.099587,7.808596 11.878988,7.5971765 11.528788,7.381572 11.21875,7.265625 10.571534,7.0235825 10.154324,6.744571 10.006367,6.15625 Z"/>
 <circle style="opacity:0.2;fill:none;stroke:#000000;stroke-width:2;stroke-linecap:round;stroke-linejoin:round" cx="11" cy="11.5" r="7"/>
 <circle style="fill:none;stroke:#f4f4f7;stroke-width:2;stroke-linecap:round;stroke-linejoin:round" cx="11" cy="11" r="7"/>
</svg>

<svg xmlns="http://www.w3.org/2000/svg" width="22" height="22" version="1"><circle style="opacity:.2" cx="11" cy="11.5" r="10"/><circle style="fill:#d14234" cx="11" cy="11" r="10"/><path style="opacity:.2;fill:#f4f4f7" d="M11 1A10 10 0 0 0 1 11a10 10 0 0 0 .01.291A10 10 0 0 1 11 1.5a10 10 0 0 1 9.99 9.709A10 10 0 0 0 21 11 10 10 0 0 0 11 1z"/><path style="fill:#ffc81b" d="m9.89 5.692-.186.385c-.267.55-.238.956.119 1.73.24.52.236.927.232 1.313-.114.908-.613 1.786-1.348 1.893-.646.095-1.64-.708-1.925-1.254-.284-.544-.383-.085-.152.705.074.253.308.962.52 1.452.648 1.495.525 2.313-.277 2.553-.44.132-.904.004-1.322-.363-.164-.144-.326-.235-.36-.202-.033.034-.079.446-.102.917-.196 1.546 1.025 2.136 2.223 2.804.634.35 1.325.612 2.06.774.429.096.932.124 1.822.104 1.106-.026 1.311-.056 2.035-.294a7.873 7.873 0 0 0 3.407-2.217c.379-.444.49-.765.61-1.231.117-.674.163-1.484.084-1.484-.043 0-.266.191-.496.424-.298.303-.484.424-.648.424-.324 0-.619-.229-.392-.729.303-.67.265-1.288-.13-2.083-.178-.358-.397-.717-.487-.798-.159-.144-.162-.135-.163.395 0 1.042-.272 1.528-1.037 1.86-.627.271-1.585.29-2.019.036-.657-.386-.658-.794-.001-2.391.158-.385.269-.665.346-.887.25-.684.168-1.362-.203-1.72a2.807 2.807 0 0 0-.881-.542c-.647-.242-1.065-.521-1.213-1.11z"/><circle style="opacity:.2;fill:none;stroke:#000;stroke-width:2;stroke-linecap:round;stroke-linejoin:round" cx="11" cy="11.5" r="7"/><circle style="fill:none;stroke:#f4f4f7;stroke-width:2;stroke-linecap:round;stroke-linejoin:round" cx="11" cy="11" r="7"/></svg>
